assets/img/icons/clock.svg

<svg width="21" height="21" viewBox="0 0 21 21" fill="none" xmlns="http://www.w3.org/2000/svg">
<path d="M10.4718 3.05542C5.70603 3.0851 3.05566 5.76447 3.05566 10.4635C3.05566 15.1625 5.70805 17.8958 10.4799 17.8958C15.3111 17.8958 17.8064 15.375 17.8961 10.4642C17.8138 5.71725 15.1803 3.08578 10.4718 3.05542ZM13.1741 11.1502H10.4759C10.1035 11.1502 9.8013 10.848 9.8013 10.4756V6.42824C9.8013 6.05588 10.1028 5.75368 10.4759 5.75368C10.8489 5.75368 11.1504 6.05588 11.1504 6.42824V9.80106H13.1741C13.5472 9.80106 13.8487 10.1033 13.8487 10.4756C13.8487 10.848 13.5472 11.1502 13.1741 11.1502Z" fill="#BF1F1F"/>
</svg>

<svg width="21" height="21" fill="none" xmlns="http://www.w3.org/2000/svg"><path d="M10.472 3.055c-4.766.03-7.416 2.71-7.416 7.409 0 4.698 2.652 7.432 7.424 7.432 4.831 0 7.326-2.521 7.416-7.432-.082-4.747-2.716-7.378-7.424-7.409Zm2.702 8.095h-2.698a.675.675 0 0 1-.675-.674V6.428a.674.674 0 1 1 1.35 0v3.373h2.023a.674.674 0 1 1 0 1.35Z" fill="#BF1F1F"/></svg>
